web/packages/design/src/ResourceIcon/assets/snowflake.svg

<svg width="72" height="72" viewBox="0 0 72 72" fill="none" xmlns="http://www.w3.org/2000/svg">
<g clip-path="url(#clip0_6709_29484)">
<path d="M61.7218 54.8731L46.5235 46.0931C44.3883 44.8638 41.6579 45.5949 40.4221 47.7301C39.9433 48.5712 39.7557 49.4964 39.8463 50.3958V67.5546C39.8463 70.0068 41.8391 71.9996 44.2977 71.9996C46.7499 71.9996 48.7427 70.0068 48.7427 67.5546V57.6876L57.2574 62.6049C59.3926 63.8407 62.1294 63.1031 63.3588 60.968C64.5946 58.8328 63.8634 56.1024 61.7218 54.8731Z" fill="#29B5E8"/>
<path d="M23.9235 36.0577C23.9493 34.4725 23.1147 32.9973 21.743 32.2015L6.54467 23.428C5.88471 23.0463 5.12771 22.8457 4.3707 22.8457C2.8114 22.8457 1.36209 23.6804 0.58567 25.0261C-0.617775 27.1095 0.100411 29.7817 2.18379 30.9851L10.9444 36.0383L2.18379 41.098C1.17445 41.6803 0.449797 42.6184 0.152172 43.7442C-0.151925 44.8701 0.00335828 46.0476 0.58567 47.057C1.36209 48.4027 2.8114 49.2374 4.36423 49.2374C5.12771 49.2374 5.88471 49.0368 6.54467 48.6551L21.743 39.8816C23.1017 39.0922 23.9364 37.63 23.9235 36.0577Z" fill="#29B5E8"/>
<path d="M9.99321 17.2106L25.1916 25.9841C26.9644 27.0128 29.1513 26.6764 30.5488 25.3112C31.4352 24.4959 31.9852 23.3313 31.9852 22.0373V4.45145C31.9852 1.9928 29.9924 0 27.5402 0C25.0816 0 23.0888 1.9928 23.0888 4.45145V14.4608L14.4576 9.47875C12.3225 8.24295 9.59206 8.97408 8.35627 11.1092C7.12047 13.2444 7.85807 15.9748 9.99321 17.2106Z" fill="#29B5E8"/>
<path d="M44.1688 36.7699C44.1688 37.1063 43.9747 37.5722 43.7353 37.818L37.7116 43.8417C37.4722 44.0811 36.9999 44.2752 36.6634 44.2752H35.13C34.7935 44.2752 34.3212 44.0811 34.0818 43.8417L28.0517 37.818C27.8123 37.5722 27.6182 37.1063 27.6182 36.7699V35.2364C27.6182 34.8935 27.8123 34.4277 28.0517 34.1883L34.0818 28.1581C34.3212 27.9187 34.7935 27.7246 35.13 27.7246H36.6634C36.9999 27.7246 37.4722 27.9187 37.7116 28.1581L43.7353 34.1883C43.9747 34.4277 44.1688 34.8935 44.1688 35.2364V36.7699ZM38.7921 36.0323V35.9676C38.7921 35.7217 38.6497 35.3788 38.4751 35.1976L36.6958 33.4248C36.5211 33.2436 36.1782 33.1013 35.9258 33.1013H35.8611C35.6153 33.1013 35.2723 33.2436 35.0912 33.4248L33.3184 35.1976C33.1437 35.3723 33.0013 35.7152 33.0013 35.9676V36.0323C33.0013 36.2846 33.1437 36.6275 33.3184 36.8022L35.0912 38.5815C35.2723 38.7562 35.6153 38.8985 35.8611 38.8985H35.9258C36.1782 38.8985 36.5211 38.7562 36.6958 38.5815L38.4751 36.8022C38.6497 36.6275 38.7921 36.2846 38.7921 36.0323Z" fill="#29B5E8"/>
<path d="M46.5246 25.9841L61.723 17.2106C63.8581 15.9812 64.5957 13.2444 63.3599 11.1092C62.1241 8.97408 59.3937 8.24295 57.2586 9.47875L48.7439 14.3961V4.45145C48.7439 1.9928 46.7511 0 44.2989 0C41.8402 0 39.8474 1.9928 39.8474 4.45145V21.6879C39.7633 22.5808 39.938 23.5125 40.4233 24.3536C41.6591 26.4887 44.3895 27.2199 46.5246 25.9841Z" fill="#29B5E8"/>
<path d="M28.239 45.5763C27.2297 45.3822 26.1491 45.544 25.1916 46.0939L9.99321 54.8739C7.85807 56.1032 7.12047 58.8336 8.35627 60.9688C9.59206 63.1104 12.3225 63.8415 14.4576 62.6057L23.0888 57.6237V67.5554C23.0888 70.0076 25.0816 72.0004 27.5402 72.0004C29.9924 72.0004 31.9852 70.0076 31.9852 67.5554V49.9695C31.9852 47.7503 30.3612 45.9128 28.239 45.5763Z" fill="#29B5E8"/>
<path d="M71.22 24.9746C69.9907 22.833 67.2538 22.1019 65.1187 23.3377L49.9203 32.1112C48.4645 32.9523 47.6622 34.4922 47.6881 36.0579C47.6752 37.6173 48.4775 39.1377 49.9203 39.9659L65.1187 48.7459C67.2538 49.9752 69.9842 49.2441 71.22 47.1089C72.4558 44.9738 71.7182 42.2434 69.583 41.0076L60.9778 36.0385L69.583 31.0695C71.7247 29.8401 72.4558 27.1098 71.22 24.9746Z" fill="#29B5E8"/>
</g>
<defs>
<clipPath id="clip0_6709_29484">
<rect width="72" height="72.0002" fill="white"/>
</clipPath>
</defs>
</svg>

<svg xmlns="http://www.w3.org/2000/svg" width="72" height="72" fill="none" viewBox="0 0 72 72"><g fill="#29b5e8" clip-path="url(#a)"><path d="m61.722 54.873-15.199-8.78a4.473 4.473 0 0 0-6.1 1.637 4.46 4.46 0 0 0-.577 2.666v17.159a4.448 4.448 0 0 0 8.896 0v-9.867l8.515 4.917a4.465 4.465 0 0 0 6.102-1.637 4.45 4.45 0 0 0-1.637-6.095M23.924 36.058a4.38 4.38 0 0 0-2.181-3.856L6.545 23.428a4.36 4.36 0 0 0-2.174-.582c-1.56 0-3.009.834-3.785 2.18a4.367 4.367 0 0 0 1.598 5.96l8.76 5.052-8.76 5.06a4.3 4.3 0 0 0-2.032 2.646 4.33 4.33 0 0 0 .434 3.313 4.367 4.367 0 0 0 5.959 1.598l15.198-8.773a4.39 4.39 0 0 0 2.18-3.824M9.993 17.21l15.199 8.774a4.466 4.466 0 0 0 5.357-.673 4.43 4.43 0 0 0 1.436-3.274V4.451A4.45 4.45 0 0 0 27.54 0a4.45 4.45 0 0 0-4.451 4.451v10.01l-8.631-4.982a4.465 4.465 0 1 0-4.465 7.732M44.169 36.77c0 .336-.194.802-.434 1.048l-6.023 6.024c-.24.24-.712.433-1.049.433H35.13c-.337 0-.809-.194-1.048-.433l-6.03-6.024c-.24-.246-.434-.712-.434-1.048v-1.534c0-.342.194-.808.434-1.048l6.03-6.03c.24-.24.712-.433 1.048-.433h1.533c.337 0 .81.194 1.049.433l6.023 6.03c.24.24.434.706.434 1.048zm-5.377-.738v-.064c0-.246-.142-.59-.317-.77l-1.78-1.773a1.22 1.22 0 0 0-.77-.324h-.064c-.246 0-.589.143-.77.324l-1.773 1.773a1.25 1.25 0 0 0-.317.77v.064c0 .253.143.596.317.77l1.773 1.78c.181.174.524.316.77.316h.065c.252 0 .595-.142.77-.317l1.78-1.779c.174-.175.316-.517.316-.77m7.733-10.048 15.198-8.773a4.465 4.465 0 1 0-4.464-7.732l-8.515 4.917V4.451A4.45 4.45 0 0 0 44.299 0a4.45 4.45 0 0 0-4.452 4.451v17.237a4.5 4.5 0 0 0 .576 2.666 4.465 4.465 0 0 0 6.102 1.63M28.239 45.576a4.43 4.43 0 0 0-3.047.518l-15.199 8.78a4.46 4.46 0 0 0-1.637 6.095 4.46 4.46 0 0 0 6.102 1.637l8.63-4.982v9.931a4.448 4.448 0 0 0 8.896 0V49.97a4.45 4.45 0 0 0-3.745-4.393M71.22 24.975a4.46 4.46 0 0 0-6.101-1.637L49.92 32.11a4.47 4.47 0 0 0-2.232 3.947 4.46 4.46 0 0 0 2.232 3.908l15.199 8.78a4.467 4.467 0 1 0 4.464-7.738l-8.605-4.97 8.605-4.968a4.45 4.45 0 0 0 1.637-6.095"/></g><defs><clipPath id="a"><path fill="#fff" d="M0 0h72v72H0z"/></clipPath></defs></svg>
